!!!!SEGMENT: pl-kk--kk-i-382--028-003_fuhrer-robert--msza-na-4ry-glosy-credo.krn
!!!cenid: 18xx:1512
!!!COM: Führer, Robert
!!!COM-rismID: pe30001170
!!!CDT: 1807/06/02-1861/11/28
!!!CNT: Czech
!!!OPR: Msza na 4ry głosy
!!!OTL: Credo
!!!OMV: 003
!!!PDT:
!!!AGN: Sacred; Mass
!!!SMS-siglum: PL-Kk
!!!SMS-shelfmark: Kk.I.382
!!!SMS-shelfwork: 013-003 M
!!!SMS-variant:
!!!SMS-altvar:
!!!NIFC-rismSourceID: 1001139162
!!!NIFC-islandoraID: pl-kk:6162
!!!URL-pdf-islandora: https://repozytorium.nifc.pl/islandora/object/pl-kk%3A6162/datastream/PDF/view
!!!URL-scan: https://polish.musicsources.pl/pl/lokalizacje/galeria/rekopisy/5994 @EN{Scan on Polish Music Herritage in Open Access Website} @PL{Skany w portalu Dziedzictwo Muzyki Polskiej w otwartym dostępie}
!!!ONB-nifc: UWAGA: obsada: S (T 1), T 2, B 1, B 2. Osobne części Mszy: Kyrie, Gloria, Credo, Sanctus, Benedictus, Agnus Dei. S (T 1): skan 0029; T 2: skan 0176-0177; B 1: skan 0101; B 2: skan 0249
!!!AIN: 2 empty 2 tenor
!!!key:
**kern	**text	**dynam	**kern	**text	**dynam	**kern	**text	**dynam	**kern	**text	**dynam
*part4	*part4	*part4	*part3	*part3	*part3	*part2	*part2	*part2	*part1	*part1	*part1
*staff4	*staff4	*	*staff3	*staff3	*	*staff2	*staff2	*	*staff1	*staff1	*
*Iempty	*	*	*Iempty	*	*	*Itenor	*	*	*Itenor	*	*
*I"Bas IIgi	*	*	*I"Bas I	*	*	*I"Tenor IIgi	*	*	*I"Soprano vel Tenore I.	*	*
*I'B 2	*	*	*I'B 1	*	*	*I'T 2	*	*	*I'S (T 1)	*	*
*clefF4	*	*	*clefF4	*	*	*clefG2	*	*	*clefG2	*	*
*	*	*	*	*	*	*Trd0c0	*	*	*Trd0c0	*	*
*k[]	*	*	*k[]	*	*	*k[]	*	*	*k[]	*	*
*C:	*	*	*C:	*	*	*C:	*	*	*C:	*	*
*M3/4	*	*	*M3/4	*	*	*M3/4	*	*	*M3/4	*	*
=1	=1	=1	=1	=1	=1	=1	=1	=1	=1	=1	=1
!LO:TX:a:t=P:problem=napis "Credo" przed kluczem	!	!	!LO:TX:a:t=P:problem=napis "Credo" przed kluczem	!	!	!LO:TX:a:t=P:problem=napis "Credo" przed kluczem	!	!	!LO:TX:a:t=P:problem=napis "Credo" przed kluczem	!	!
!LO:TX:a:t=Credo	!	!	!LO:TX:a:t=Credo	!	!LO:DY:a:rj	!LO:TX:a:i:t=Credo	!	!LO:DY:a:rj	!LO:TX:a:i:t=Credo	!	!LO:DY:a:rj
!	!	!	!LO:TX:a:t=P:problem=oznaczenie dynamiczne na pięciolinii przed nutą	!	!	!LO:TX:a:t=P:problem=oznaczenie dynamiczne na pięciolinii przed nutą	!LO:TX:a:t=P:problem=oznaczenie dynamiczne na pięciolinii przed nutą	!	!LO:TX:a:t=P:problem=oznaczenie dynamiczne na pięciolinii przed nutą	!	!
(<4C/	Pa-	.	(>4E\	Pa-	f	2g/	Pa-	f	2cc\	Pa-	f
4D/)	.	.	4F\)	.	.	.	.	.	.	.	.
4D/	-trem	.	4F\	-trem	.	4g/	-trem	.	4b\	-trem	.
=2	=2	=2	=2	=2	=2	=2	=2	=2	=2	=2	=2
4E\	om-	.	4E\	om-	.	4g/	om-	.	4cc\	om-	.
4D/	-ni-	.	4G\	-ni-	.	4b/	-ni-	.	4dd\	-ni-	.
4C/	-po-	.	4G\	-po-	.	4cc/	-po-	.	4ee\	-po-	.
=3	=3	=3	=3	=3	=3	=3	=3	=3	=3	=3	=3
(<4BB/	-ten-	.	2.G\	-ten-	.	(>2dd\	-ten-	.	(>2ff\	-ten-	.
2C/)	.	.	.	.	.	.	.	.	.	.	.
.	.	.	.	.	.	4cc\)	.	.	4ee\)	.	.
=4	=4	=4	=4	=4	=4	=4	=4	=4	=4	=4	=4
2GG/	-tem	.	2G\	-tem,	.	2b\	-tem,	.	2dd\	-tem	.
4r	.	.	4r	.	.	4r	.	.	4r	.	.
!	!	!	!	!	!	!	!	!	!LO:LB:g=original	!	!
=5	=5	=5	=5	=5	=5	=5	=5	=5	=5	=5	=5
!LO:TX:a:t=3	!	!	!	!	!	!	!	!	!	!	!
!LO:TX:a:t=P:problem=belka jako pauza wielotaktowa	!	!	!	!	!	!	!	!	!	!	!
2.r	.	.	(>4F\	et	.	2a/	et	.	(>4dd\	et	.
.	.	.	4E\)	.	.	.	.	.	4cc#X\)	.	.
.	.	.	4G\	in	.	4a/	in	.	4ee\	in	.
!	!	!	!LO:LB:g=original	!	!	!	!	!	!	!	!
=6	=6	=6	=6	=6	=6	=6	=6	=6	=6	=6	=6
2.r	.	.	(>4F\	Je-	.	2a/	Je-	.	(>4dd\	Je-	.
.	.	.	4D\)	.	.	.	.	.	4ff\)	.	.
.	.	.	4F\	-sum	.	4a/	-sum	.	4dd\	-sum	.
!	!	!	!	!	!	!LO:LB:g=original	!	!	!	!	!
=7	=7	=7	=7	=7	=7	=7	=7	=7	=7	=7	=7
2.r	.	.	2.E\	Chri-	.	2.g#X/	Chri-	.	(>4ee\	Chri-	.
.	.	.	.	.	.	.	.	.	4b\	.	.
.	.	.	.	.	.	.	.	.	4dd\)	.	.
!LO:LB:g=original	!	!	!	!	!	!	!	!	!	!	!
=8	=8	=8	=8	=8	=8	=8	=8	=8	=8	=8	=8
4r	.	.	4A\	-stum	.	4a/	-stum	.	4cc\	-stum	.
!LO:TX:a:t=P:problem=oznaczenie dynamiczne na pięciolinii przed nutą	!	!LO:DY:a:rj	!	!	!	!	!	!	!LO:TX:a:t=P:problem=oznaczenie dynamiczne na pięciolinii przed nutą	!	!LO:DY:a:rj
4AA/	fi-	f	4F#X\	fi-	.	4cc\	fi-	.	4ee\	fi-	f
8D/	-li-	.	8F#\	-li-	.	8cc\	-li-	.	8dd\	-li-	.
8D/	-um	.	8F#\	-um	.	8cc\	-um	.	8dd\	-um	.
=9	=9	=9	=9	=9	=9	=9	=9	=9	=9	=9	=9
2GG/	De-	.	2G\	De-	.	2b\	De-	.	(>4dd\	De-	.
.	.	.	.	.	.	.	.	.	4gg\)	.	.
4E\	-i	.	4G\	-i	.	4b\	-i	.	4b\	-i	.
!	!	!	!	!	!	!	!	!	!LO:LB:g=original	!	!
=10	=10	=10	=10	=10	=10	=10	=10	=10	=10	=10	=10
(>4C#X/	u-	.	2G\	u-	.	2a#X/	u-	.	(>4ee^>\	u-	.
4D/	.	.	.	.	.	.	.	.	4dd\)	.	.
4E\)	-ni-	.	4G\	-ni-	.	4a#/	-ni-	.	4cc#X\	-ni-	.
=11	=11	=11	=11	=11	=11	=11	=11	=11	=11	=11	=11
!	!	!	!	!	!	!	!	!	!	!	!LO:DY:a:t=p.:rj
2D\	-ge-	.	(>4G\	-ge-	.	(<4b/	-ge-	.	2dd\	-ge-	p
.	.	.	4F#X\)	.	.	4an/)	.	.	.	.	.
4D/	-ni-	.	4A\	-ni-	.	4cc\	-ni-	.	4dd\	-ni-	.
!	!	!	!LO:LB:g=original	!	!	!	!	!	!	!	!
=12	=12	=12	=12	=12	=12	=12	=12	=12	=12	=12	=12
4GG/	-tum	.	4G\	-tum,	.	4b/	-tum,	.	4dd\	-tum,	.
4GG/	et	.	4D\	et	.	4g/	et	.	4b\	et	.
4GG/	in	.	4C#X/	in	.	4g/	in	.	4a#X/	in	.
!	!	!	!	!	!	!LO:LB:g=original	!	!	!	!	!
=13	=13	=13	=13	=13	=13	=13	=13	=13	=13	=13	=13
!	!	!	!LO:TX:a:t=P:problem=łuk dopisany ołówkiem	!	!	!	!	!	!	!	!
4.GG/	Spi-	.	(>4D\	Spi-	.	4g/	Spi-	.	4.b\	Spi-	.
.	.	.	8D#X\)	-ri-	.	4g/	-ri-	.	.	.	.
8GG/	-ri-	.	8D#\	-tum	.	.	.	.	8b\	-ri-	.
4GG/	-tum	.	(>4E\	.	.	4g/	-tum	.	4cc\	-tum	.
!LO:LB:g=original	!	!	!	!	!	!	!	!	!	!	!
=14	=14	=14	=14	=14	=14	=14	=14	=14	=14	=14	=14
(>4GG/	san-	.	2Fn\)	San-	.	2g/	San-	.	2dd\	San-	.
4BB/	.	.	.	.	.	.	.	.	.	.	.
4C/)	-ctum	.	4E\	-ctum	.	4g/	-ctum	.	4cc\	-ctum	.
=15	=15	=15	=15	=15	=15	=15	=15	=15	=15	=15	=15
(<4D/	Do-	.	2G\	Do-	.	(>4b/	Do-	.	2ff\	Do-	.
4C/)	.	.	.	.	.	4cc\)	.	.	.	.	.
4E\	-mi-	.	4G\	-mi-	.	4cc\	-mi-	.	4ee\	-mi-	.
!	!	!	!	!	!	!	!	!	!LO:LB:g=original	!	!
=16	=16	=16	=16	=16	=16	=16	=16	=16	=16	=16	=16
2G\	-num,	.	2G\	-num	.	(>4cc\	-num,	.	2dd\	-num,	.
.	.	.	.	.	.	4b/)	.	.	.	.	.
!LO:TX:a:t=P:problem=oznaczenie dynamiczne na pięciolinii przed nutą	!	!LO:DY:a:rj	!	!	!	!	!	!	!	!	!
4F\	et	f	4A\	et	.	4b/	et	.	4dd#X\	et	.
=17	=17	=17	=17	=17	=17	=17	=17	=17	=17	=17	=17
2E\	u-	.	(>4G#X\	u-	.	(>4b/	u-	.	2ee\	u-	.
.	.	.	4A\)	.	.	4cc\)	.	.	.	.	.
!	!	!	!LO:TX:b:i:t=V. S.	!	!	!	!	!	!	!	!
4E\	-nam	.	4A\	-nam	.	4cc\	-nam	.	4dd#X\	-nam	.
!	!	!	!LO:PB:g=original	!	!	!	!	!	!	!	!
=18	=18	=18	=18	=18	=18	=18	=18	=18	=18	=18	=18
4E^>\	san-	.	4G#X\	San-	.	4b/	san-	.	4ee\	san-	.
!	!	!	!	!	!	!	!	!	!	!	!LO:HP:a
.	.	.	.	.	.	.	.	.	.	.	>
4E\	-ctam	.	4G#\	-ctam	.	4b/	-ctam	.	4b\	-ctam	.
.	.	.	.	.	.	.	.	.	.	.	]
4GG#X/	ec-	.	4E\	.	.	4b/	ec-	.	4ddn\	ec-	.
!	!	!	!	!	!	!LO:LB:g=original	!	!	!	!	!
=19	=19	=19	=19	=19	=19	=19	=19	=19	=19	=19	=19
!	!	!	!LO:TX:a:t=P:problem=łuk dopisany ołówkiem	!	!	!	!	!	!	!	!
(<4AA/	-cle-	.	(>4E\	eccle-	.	2a/	-cle-	.	(>4a/	-cle-	.
4FF/)	.	.	4F\)	-si-	.	.	.	.	4ee\)	.	.
4FF/	-si-	.	4F\	-am	.	4a/	-si-	.	4dd\	-si-	.
!LO:LB:g=original	!	!	!	!	!	!	!	!	!	!	!
=20	=20	=20	=20	=20	=20	=20	=20	=20	=20	=20	=20
2GG/	-am,	.	(>2D\	et	.	2gn/	-am,	.	2b\	-am,	.
4G\	et	.	4G\)	.	.	4g/	et	.	4g/	et	.
=21	=21	=21	=21	=21	=21	=21	=21	=21	=21	=21	=21
4C/	vi-	.	4E\	vi-	.	4g/	vi-	.	4ee\	vi-	.
4E\	-tam	.	4G\	-tam	.	4g/	-tam	.	4cc\	-tam	.
4D/	ven-	.	4F\	ven-	.	4g/	ven-	.	4b\	ven-	.
!	!	!	!	!	!	!	!	!	!LO:LB:g=original	!	!
=22	=22	=22	=22	=22	=22	=22	=22	=22	=22	=22	=22
(>4E\	-tu-	.	(>4E\	-tu-	.	(>4g/	-tu-	.	(>4cc\	-tu-	.
4D/)	.	.	4G\)	.	.	4b\)	.	.	4dd\)	.	.
4C/	-ri	.	4G\	-ri	.	4cc\	-ri	.	4ee\	-ri	.
=23	=23	=23	=23	=23	=23	=23	=23	=23	=23	=23	=23
4.BB/	sae-	.	8G\	sae-	.	4.dd\	sae-	.	4.ff\	sae-	.
.	.	.	4.G\	-cu-	.	.	.	.	.	.	.
8BB/	-cu-	.	.	.	.	8dd\	-cu-	.	8ff\	-cu-	.
4C/	-li	.	4G\	-li	.	4cc\	-li	.	4ee\	-li	.
!	!	!	!LO:LB:g=original	!	!	!	!	!	!	!	!
=24	=24	=24	=24	=24	=24	=24	=24	=24	=24	=24	=24
4G\	a-	.	4G\	a-	.	4cc\	a-	.	(>4ee\	a-	.
4GG/	-men	.	4G\	-men,	.	4b\	-men,	.	4dd\)	.	.
4r	.	.	4r	.	.	4r	.	.	4gg\	-men	.
!	!	!	!	!	!	!LO:LB:g=original	!	!	!	!	!
=25	=25	=25	=25	=25	=25	=25	=25	=25	=25	=25	=25
!LO:TX:a:t=2.	!	!	!LO:TX:a:t=i	!	!	!	!	!	!	!	!
!LO:TX:a:t=P:problem=belka jako pauza wielotaktowa	!	!	!	!	!	!	!	!	!	!	!
2.r	.	.	2.r	.	.	4r	.	.	2.ee\	a-	.
.	.	.	.	.	.	(<4g/	a-	.	.	.	.
.	.	.	.	.	.	4b-X/	.	.	.	.	.
=26	=26	=26	=26	=26	=26	=26	=26	=26	=26	=26	=26
2.r	.	.	4r	.	.	4a/)	-men,	.	4ff\	-men,	.
.	.	.	(>4E\	a-	.	2a/	a-	.	2cc#X\	a-	.
.	.	.	4G\)	.	.	.	.	.	.	.	.
!LO:LB:g=original	!	!	!	!	!	!	!	!	!	!	!
=27	=27	=27	=27	=27	=27	=27	=27	=27	=27	=27	=27
4r	.	.	4F\	-men,	.	4a/	-men,	.	4dd\	-men,	.
!LO:TX:a:t=P:problem=oznaczenie dynamiczne na pięciolinii przed nutą	!	!LO:DY:a:rj	!	!	!	!	!	!	!LO:TX:a:t=P:problem=oznaczenie dynamiczne na pięciolinii przed nutą	!	!LO:DY:a:rj
(>4D\	a-	f	[>2G\	a-	.	2b\	a-	.	2gg\	a-	f
4F\)	.	.	.	.	.	.	.	.	.	.	.
!	!	!	!	!	!	!	!	!	!LO:LB:g=original	!	!
=28	=28	=28	=28	=28	=28	=28	=28	=28	=28	=28	=28
(<4E\	-a-	.	2G\]	.	.	(>4cc\	.	.	(>4gg\	-a-	.
4D/)	.	.	.	.	.	4b\)	.	.	4ff\	.	.
4C/	-men,	.	4G\	-men,	.	4cc\	-men	.	4ee\)	-men,	.
=29	=29	=29	=29	=29	=29	=29	=29	=29	=29	=29	=29
2F\	a-	.	2A\	a-	.	2cc\	a-	.	2dd\	a-	.
4F#X\	-men,	.	4A\	-men,	.	4cc\	-men	.	4dd#X\	-men,	.
!	!	!	!LO:LB:g=original	!	!	!	!	!	!	!	!
=30	=30	=30	=30	=30	=30	=30	=30	=30	=30	=30	=30
2G\	a-	.	(>4G\	a-	.	(>4cc\	a-	.	(>4ee\	a-	.
.	.	.	4Fn\	.	.	4g/)	.	.	4ddn\)	.	.
4GG/	-men,	.	4E\)	-men,	.	4g/	-men,	.	4cc\	-men,	.
=31	=31	=31	=31	=31	=31	=31	=31	=31	=31	=31	=31
2.GG/	A-	.	(>2D\	A-	.	2.g/	a-	.	(>4cc\	a-	.
.	.	.	.	.	.	.	.	.	8b\L	.	.
.	.	.	.	.	.	.	.	.	8a\J)	.	.
.	.	.	4F\)	.	.	.	.	.	4b\	-a-	.
=32	=32	=32	=32	=32	=32	=32	=32	=32	=32	=32	=32
!	!	!	!	!	!	!	!	!	!LO:N:vis=1	!	!
2.C;>/	-men.	.	2.E;>\	-men.	.	2.g/	-men.	.	2.cc;>\	-men.	.
==	==	==	==	==	==	==	==	==	==	==	==
*-	*-	*-	*-	*-	*-	*-	*-	*-	*-	*-	*-
!!!system-decoration: [(s1,s2,s3,s4)]
!!!RDF**kern: > = above
!!!RDF**kern: < = below
!!!EED: Mateusz Mrugas
!!!EEV: 2021-02-06
!!!ENC: Andrzej Borzym
!!!END: 2021-01-29
